X:1
T:No so yo quien a3
T:Anonymous
T:Source : Cancionero de Uppsala : Villancicos---Venetia---G.Scotto---1556. Editor : André Vierendeels (10/04/17)
T:Notes  : Original clefs : C1, C2, C4 Editorial accidentals above the staff Original note values have been halved Square brackets indicate ligatures Dotted brackets indicate black notes
T:No so yo quien a3
T:©
T:©
T:©
T:©
C:Anonymous
Z:©
%%score [ 1 [ 2 3 ] ]
L:1/8
Q:1/4=120
M:3/2
K:F
V:1 treble nm="Soprano" snm="S"
V:2 treble-8 nm="Tenor 1" snm="T 1"
V:3 treble-8 nm="Tenor 2" snm="T 2"
V:1
 z12 | z4 F4 G4 | A8 B4 | A4 G8 | F4 c4 B4 | A4 z2 c2 B4 | A4 F4 G4 | A6 F2 G4 | A8 z4 | z4 A4 G4 | %10
w: |No so|yo quien|veys bi-|vir, no so|yo no so|yo no no|no no no|no,|som- bra|
w: |El que|fue, el|que fue'y|vue- stro se-|ra no so|yo no no|no no no|no,||
 E4 A4 A2 G2- | G2 D2 F4 E4 | F4 c4 c2 B2- | B2 F2 A4 G4 | F4 A4 A4 | G8 D4 | F4 E6 D2 | %17
w: soy som- bra soy|_ del que mu-|ri- o, del que|_ mu- ri- *|o, som- bra|soy del|que mu- *|
w: |||||||
 D4 C4 D4- | D4 E8 | D12 || z12 | z4 F4 G4 | A6 F2 G4 | B4 A4 c4 | A4 G8 | F8 A4 | E4 G4 D4 | %27
w: ri- * *||o.||Se- nyo-|ra ya no-|so ya ya|no- so|quien go-|za- va vue-|
w: ||||Ya'es- per-|di da mi|me- mo- ria,|me- mo-|ria que|nel o- tro|
 F4 E8 | D12 |] %29
w: stra glo-|ria.|
w: mun- do'es-|ta.|
V:2
 z4 f4 g4 | a4 d4 e4 | c4 d8 | f8 e4 | f8 g4 | f4 e4 z2 g2 | f4 d6 c2 | A4 B8 | A4 d4 c4 | %9
w: No so|yo, no so|yo quien|veys bi-|vir, no|so yo no|so yo yo|no no|no, som- bra|
w: |||||||||
 A4 A4 B4 | c4 A2 B2 c2 d2 | e2 f3 e d4 c2 | d4 c2 d2 e2 f2 | g2 a3 g f3 e e2 | f4 F3 G A3 B | %15
w: soy, som- bra|soy, som- bra soy del|que mu- * * ri-|o, del que mu- ri-|o, del que mu- * ri-|o, som- bre soy del|
w: ||||||
 c3 d e6 d2 | d4 c4 d4- | d4 e6 d2 |"^#" d8 c4 | d12 || z4 f4 g4 | a6 d2 e4 | f4 d4 e4 | g4 a6 g2 | %24
w: que mu- ri- *|o, mu- ri-|* o, mu-|ri- *|o.|Se- nyo-|ra, se- nyo-|* ra, se-|nyo- ra no|
w: |||||Ya'es- per-|di- da mi|_ me- mo-|ria _ _|
 f8 e4 | f4 d4 A4 | c4 G3 A B3 c |"^#" d6 d2 c4 | d12 |] %29
w: so ya|quien go- za-|* va, _ _ _|vue- stra glo-|ria.|
w: me- mo-|ria que nel|o- tro _ _ _|mun- do es-|ta.|
V:3
 z4 d4 c4 | A4 B4 G4 | F8 G4 | A4 B4 c4 | F4 f4 B4 | d6 c2 d2 e2 | f8 e4- | e4 d8 | z4 f4 e4 | %9
w: No so|yo, no so|yo quien|veys _ bi-|vir, no so|yo no no no|som- bra|_ soy,|som- bra|
w: |||||||||
 c4 F4 G4 | A2 B2 c2 d2 e4 | c3 B A2 F2 G2 A2 | D2 d2 e2 f2 g4 | e3 d c2 A2 B2 c2 | F4 f4 e4- | %15
w: soy, som- bra|soy, del que mu- ri-|o, del que mu- ri- *|o, del que mu- ri-|o som- bra soy del que|mu- ri- o|
w: ||||||
 e2 d2 c6 BA | B4 c4 G4 | B4 A4 G4 | B4 A8 | D12 || z4 d4 c4 | A4 B4 G4 | F4 B4 G4- | %23
w: _ del que _ _|_ mu- ri-|* o, mu-|ri- *|o.|Se- nyo-|ra, se- nyo-|ra, ya no-|
w: |||||Ya'es- per|di- da, ya'es-|per- di- da|
 G2 G2 d4 A4- | A2 A2 B4 c4 | F4 B4 c4- | c2 A2 B4 G4 | F4 G4 A4 | D12 |] %29
w: * so ya quien|_ go- za- va|vue- stra glo-|* ri- a, vue-|stra glo- ri-|a.|
w: _ ya'es- per- di-|* da mi me-|mo- ria que|_ nel o- tro|mun- do es-|ta.|

